X:262
T: MAEDCHEN, WARUM WEINEST DU
N: Z0260
O: Europa, Mitteleuropa, Deutschland
R: lyrisches Lied, Romanze
M: 2/4
L: 1/8
K: G
BBBB | Bdd2 | Acc2 | Bdd2 |
BBBB | Bdd2 | Accc | B2z2 |
Accc | Bgdd | Accc | Bgdd |
BBBB | Bdd2 | Accc | B2z2

@@@ Tune index: 10020
